X: 1
T: Byth Adra
M: 6/8
L: 1/8
R: jig
K: Amaj
|:E2c cBA|FAF E3|E2c cBA|cde B3|
E2c cBA|FAd f2a|efe dcB|cAA A3:|
|:eaa agf|efe edc|Bcd dcB|caf e3|
eaa agf|efe edc|def ecA|GAB A3:|
